src/layouts/images/icon-saig.svg

<svg width="12" height="24" viewBox="0 0 12 24" version="1.1" xmlns="http://www.w3.org/2000/svg" xmlns:xlink="http://www.w3.org/1999/xlink"><title>Group 3</title><desc>Created with Sketch.</desc><defs><circle id="path-1" cx="11.948" cy="11.948" r="11.948"/></defs><g id="Page-1" stroke="none" stroke-width="1" fill="none" fill-rule="evenodd"><g id="Artboard-2" transform="translate(-54.000000, -54.000000)"><g id="Logo" transform="translate(54.000000, 54.000000)"><g id="Group-3"><mask id="mask-2" fill="#fff"><use xlink:href="#path-1"/></mask><path d="M-0.702839757,0 L11.2454361,0 L11.2454361,0.955862069 L-0.702839757,0.955862069 L-0.702839757,0 Z M-0.702839757,1.91172414 L11.2454361,1.91172414 L11.2454361,2.86758621 L-0.702839757,2.86758621 L-0.702839757,1.91172414 Z M-0.702839757,3.82344828 L11.2454361,3.82344828 L11.2454361,4.77931034 L-0.702839757,4.77931034 L-0.702839757,3.82344828 Z M-0.702839757,5.73517241 L11.2454361,5.73517241 L11.2454361,6.69103448 L-0.702839757,6.69103448 L-0.702839757,5.73517241 Z M-0.702839757,7.64689655 L11.2454361,7.64689655 L11.2454361,8.60275862 L-0.702839757,8.60275862 L-0.702839757,7.64689655 Z M-0.702839757,9.55862069 L11.2454361,9.55862069 L11.2454361,10.5144828 L-0.702839757,10.5144828 L-0.702839757,9.55862069 Z M-0.702839757,11.4703448 L11.2454361,11.4703448 L11.2454361,12.4262069 L-0.702839757,12.4262069 L-0.702839757,11.4703448 Z M-0.702839757,13.382069 L11.2454361,13.382069 L11.2454361,14.337931 L-0.702839757,14.337931 L-0.702839757,13.382069 Z M-0.702839757,15.2937931 L11.2454361,15.2937931 L11.2454361,16.2496552 L-0.702839757,16.2496552 L-0.702839757,15.2937931 Z M-0.702839757,17.2055172 L11.2454361,17.2055172 L11.2454361,18.1613793 L-0.702839757,18.1613793 L-0.702839757,17.2055172 Z M-0.702839757,19.1172414 L11.2454361,19.1172414 L11.2454361,20.0731034 L-0.702839757,20.0731034 L-0.702839757,19.1172414 Z M-0.702839757,21.0289655 L11.2454361,21.0289655 L11.2454361,21.9848276 L-0.702839757,21.9848276 L-0.702839757,21.0289655 Z M-0.702839757,22.9406897 L11.2454361,22.9406897 L11.2454361,23.8965517 L-0.702839757,23.8965517 L-0.702839757,22.9406897 Z" id="Combined-Shape" fill="#1D1D1D" mask="url(#mask-2)"/></g></g></g></g></svg>

<svg width="12" height="24" xmlns="http://www.w3.org/2000/svg" xmlns:xlink="http://www.w3.org/1999/xlink"><defs><circle id="a" cx="11.948" cy="11.948" r="11.948"/></defs><g fill="none" fill-rule="evenodd"><mask id="b" fill="#fff"><use xlink:href="#a"/></mask><path d="M-.703 0h11.948v.956H-.703V0zm0 1.912h11.948v.956H-.703v-.956zm0 1.911h11.948v.956H-.703v-.956zm0 1.912h11.948v.956H-.703v-.956zm0 1.912h11.948v.956H-.703v-.956zm0 1.912h11.948v.955H-.703V9.56zm0 1.911h11.948v.956H-.703v-.956zm0 1.912h11.948v.956H-.703v-.956zm0 1.912h11.948v.956H-.703v-.956zm0 1.912h11.948v.955H-.703v-.955zm0 1.911h11.948v.956H-.703v-.956zm0 1.912h11.948v.956H-.703v-.956zm0 1.912h11.948v.956H-.703v-.956z" fill="#1D1D1D" mask="url(#b)"/></g></svg>
